X:1
T:Strube's Quickstep
M:6/8
L:1/8
Q:1/8=300
K:D
|: a|ecA A2B|c2 d edc|dcd faf|d2 e fga|ecA A2 B|c2 d edc|Bgf edc|d3 d2 :|
|: z|e2 f gfg|e2 f g2 g|afd dcd|ecA A2 f|e2 f gfg|e2 f g2 b|afd gec|d3 d2 :|
